!!!COM: Copland, Aaron
!!!OTL: Dance Panels, Ballet in Seven Sections
!!!OMV: I: Introduction
!!!example: 722
!!!work: Cop-41
**kern	**dynam	**kern	**dynam	**kern	**dynam	**kern	**dynam	**kern	**dynam	**kern	**dynam	**kern	**dynam	**kern	**dynam	**kern	**dynam	**kern	**kern	**kern	**dynam	**kern	**dynam
*part13	*part13	*part12	*part12	*part11	*part11	*part10	*part10	*part9	*part9	*part8	*part8	*part7	*part7	*part6	*part6	*part5	*part5	*part4	*part3	*part2	*part2	*part1	*part1
*staff13	*	*staff12	*	*staff11	*	*staff10	*	*staff9	*	*staff8	*	*staff7	*	*staff6	*	*staff5	*	*staff4	*staff3	*staff2	*	*staff1	*
*I"Contrabass	*	*I"Violoncello	*	*I"Viola	*	*I"Violin II	*	*I"Violin I	*	*I"Trombone	*	*I"Trumpet in C	*	*I"Horn in F	*	*I"Bassoon	*	*I"Clarinet in Bb	*I"Oboe	*I"Piccolo	*	*I"Flute	*
*I'Cb.	*	*I'Vc.	*	*I'Vla.	*	*I'Vln. II	*	*I'Vln. I	*	*I'Tbn.	*	*I'C Tpt.	*	*I'Hn.	*	*I'Bsn.	*	*I'Cl.	*I'Ob.	*I'Picc.	*	*I'Fl.	*
*clefF4	*	*clefF4	*	*clefC3	*	*clefG2	*	*clefG2	*	*clefF4	*	*clefG2	*	*clefG2	*	*clefF4	*	*clefG2	*clefG2	*clefG2	*	*clefG2	*
*k[]	*	*k[]	*	*k[]	*	*k[]	*	*k[]	*	*k[]	*	*k[]	*	*k[]	*	*k[]	*	*k[]	*k[]	*k[]	*	*k[]	*
*	*	*	*	*	*	*	*	*	*	*	*	*	*	*	*	*	*	*	*	*	*	*	*
*M3/4	*	*M3/4	*	*M3/4	*	*M3/4	*	*M3/4	*	*M3/4	*	*M3/4	*	*M3/4	*	*M3/4	*	*M3/4	*M3/4	*M3/4	*	*M3/4	*
=31	=	=	=	=	=	=	=	=	=	=	=	=	=	=	=	=	=	=	=	=	=	=	=
2.r	.	2.r	.	2.r	.	2.r	.	2.r	.	2.r	.	2.r	.	2.r	.	2.r	.	[4.ee-X~	[2.ccc	2.r	.	2.r	.
.	.	.	.	.	.	.	.	.	.	.	.	.	.	.	.	.	.	8ee-']	.	.	.	.	.
.	.	.	.	.	.	.	.	.	.	.	.	.	.	.	.	.	.	[4ee-~	.	.	.	.	.
=32	=32	=32	=32	=32	=32	=32	=32	=32	=32	=32	=32	=32	=32	=32	=32	=32	=32	=32	=32	=32	=32	=32	=32
2.r	.	2.r	.	2.r	.	2.r	.	2.r	.	2.r	.	2.r	.	2.r	.	2.r	.	4ee-]	2.ccc_	2.r	.	2.r	.
.	.	.	.	.	.	.	.	.	.	.	.	.	.	.	.	.	.	[4.ee-X~	.	.	.	.	.
.	.	.	.	.	.	.	.	.	.	.	.	.	.	.	.	.	.	8ee-']	.	.	.	.	.
=33	=33	=33	=33	=33	=33	=33	=33	=33	=33	=33	=33	=33	=33	=33	=33	=33	=33	=33	=33	=33	=33	=33	=33
2.r	.	2.r	.	2.r	.	2.r	.	2.r	.	2.r	.	2.r	.	2.r	.	2.r	.	2ee-X~	4ccc]	2.r	.	2.r	.
.	.	.	.	.	.	.	.	.	.	.	.	.	.	.	.	.	.	.	[2ccc~	.	.	.	.
.	.	.	.	.	.	.	.	.	.	.	.	.	.	.	.	.	.	(4ee-	.	.	.	.	.
=34	=34	=34	=34	=34	=34	=34	=34	=34	=34	=34	=34	=34	=34	=34	=34	=34	=34	=34	=34	=34	=34	=34	=34
2.r	.	2.r	.	2.r	.	2.r	.	2.r	.	2.r	.	2.r	.	2.r	.	2.r	.	2dd)	4ccc]	2.r	.	2.r	.
.	.	.	.	.	.	.	.	.	.	.	.	.	.	.	.	.	.	.	[2ccc~	.	.	.	.
.	.	.	.	.	.	.	.	.	.	.	.	.	.	.	.	.	.	[4ee-X	.	.	.	.	.
=35	=35	=35	=35	=35	=35	=35	=35	=35	=35	=35	=35	=35	=35	=35	=35	=35	=35	=35	=35	=35	=35	=35	=35
*	*	*	*	*	*	*	*	*	*	*	*	*	*	*	*	*	*	*^	*	*	*	*	*
2.r	.	2.r	.	2.r	.	2.r	.	2.r	.	2.r	.	2.r	.	2.r	.	2.r	.	4ee-]	[4.a~	4ccc]	2.r	.	2.r	.
.	.	.	.	.	.	.	.	.	.	.	.	.	.	.	.	.	.	[4.ee-X~	.	[2ccc~	.	.	.	.
.	.	.	.	.	.	.	.	.	.	.	.	.	.	.	.	.	.	.	8a']	.	.	.	.	.
.	.	.	.	.	.	.	.	.	.	.	.	.	.	.	.	.	.	.	[4a~	.	.	.	.	.
.	.	.	.	.	.	.	.	.	.	.	.	.	.	.	.	.	.	8ee-']	.	.	.	.	.	.
=36	=36	=36	=36	=36	=36	=36	=36	=36	=36	=36	=36	=36	=36	=36	=36	=36	=36	=36	=36	=36	=36	=36	=36	=36
2.r	.	2.r	.	2.r	.	2.r	.	2.r	.	2.r	.	2.r	.	2.r	.	2.r	.	2dd	4a]	4.ccc]	2.r	.	2.r	.
.	.	.	.	.	.	.	.	.	.	.	.	.	.	.	.	.	.	.	[4.a~	.	.	.	.	.
.	.	.	.	.	.	.	.	.	.	.	.	.	.	.	.	.	.	.	.	[4.ccc~	.	.	.	.
.	.	.	.	.	.	.	.	.	.	.	.	.	.	.	.	.	.	[4ee-X	.	.	.	.	.	.
.	.	.	.	.	.	.	.	.	.	.	.	.	.	.	.	.	.	.	8a']	.	.	.	.	.
=37	=37	=37	=37	=37	=37	=37	=37	=37	=37	=37	=37	=37	=37	=37	=37	=37	=37	=37	=37	=37	=37	=37	=37	=37
2.r	.	2.r	.	2.r	.	2.r	.	2.r	.	2.r	.	2.r	.	2.r	.	2.r	.	4.ee-]	2a	4ccc]	2.r	.	2.r	.
.	.	.	.	.	.	.	.	.	.	.	.	.	.	.	.	.	.	.	.	[2bb-X	.	.	.	.
.	.	.	.	.	.	.	.	.	.	.	.	.	.	.	.	.	.	[4.dd	.	.	.	.	.	.
.	.	.	.	.	.	.	.	.	.	.	.	.	.	.	.	.	.	.	(4a	.	.	.	.	.
=38	=38	=38	=38	=38	=38	=38	=38	=38	=38	=38	=38	=38	=38	=38	=38	=38	=38	=38	=38	=38	=38	=38	=38	=38
2.r	.	2.r	.	4r	.	8r	.	2.r	.	2.r	.	2.r	.	2.r	.	2.r	.	8dd]	2b-X~)	8bb-L]	2.r	.	2.r	.
.	.	.	.	.	.	[4dd#X	mp	.	.	.	.	.	.	.	.	.	.	[4.ee-X	.	(8bb-XJ	.	.	.	.
.	.	.	.	4r	.	.	.	.	.	.	.	.	.	.	.	.	.	.	.	2ccc)	.	.	.	.
.	.	.	.	.	.	8dd#~]	.	.	.	.	.	.	.	.	.	.	.	.	.	.	.	.	.	.
.	.	.	.	[4a	mp	([4dd#	.	.	.	.	.	.	.	.	.	.	.	8ee-L]	[4a	.	.	.	.	.
.	.	.	.	.	.	.	.	.	.	.	.	.	.	.	.	.	.	[8ddJ	.	.	.	.	.	.
=39	=39	=39	=39	=39	=39	=39	=39	=39	=39	=39	=39	=39	=39	=39	=39	=39	=39	=39	=39	=39	=39	=39	=39	=39
!!pagebreak:original
2.r	.	2.r	.	4a]	.	8dd#L]	.	2.r	.	2.r	.	2.r	.	2.r	.	2.r	.	4.dd]	4a]	2bb-X	2.r	.	2.r	.
.	.	.	.	.	.	8dd#X~J)	.	.	.	.	.	.	.	.	.	.	.	.	.	.	.	.	.	.
.	.	.	.	4b	.	4.ee#X	.	.	.	.	.	.	.	.	.	.	.	.	(4b-X	.	.	.	.	.
.	.	.	.	.	.	.	.	.	.	.	.	.	.	.	.	.	.	8dd	.	.	.	.	.	.
.	.	.	.	[4a	.	.	.	.	.	.	.	.	.	.	.	.	.	[4ee-X	[4a)	[4ccc	.	.	.	.
.	.	.	.	.	.	([8dd#X	.	.	.	.	.	.	.	.	.	.	.	.	.	.	.	.	.	.
=40	=40	=40	=40	=40	=40	=40	=40	=40	=40	=40	=40	=40	=40	=40	=40	=40	=40	=40	=40	=40	=40	=40	=40	=40
2.r	.	2.r	.	4a]	.	4.dd#]	.	4r	.	2.r	.	2.r	.	2.r	.	[4.B~	mf	4ee-]	2a]	4.ccc]	2.r	.	2.r	.
.	.	.	.	4.B	mf	.	.	8r	.	.	.	.	.	.	.	.	.	[2dd	.	.	.	.	.	.
.	.	.	.	.	.	8dd#X~)	.	([4.bb-X	mp	.	.	.	.	.	.	8B']	.	.	.	[4.bb-X	.	.	.	.
.	.	.	.	.	.	([4dd#	.	.	.	.	.	.	.	.	.	[4B~	.	.	[4a	.	.	.	.	.
.	.	.	.	[8B	.	.	.	.	.	.	.	.	.	.	.	.	.	.	.	.	.	.	.	.
=41	=41	=41	=41	=41	=41	=41	=41	=41	=41	=41	=41	=41	=41	=41	=41	=41	=41	=41	=41	=41	=41	=41	=41	=41
2.r	.	[4.F#X~	mf	8BL]	.	4.dd#]	<	2bb-_	.	2.r	.	2.r	.	[4.F#X~	mf	8BL_	.	4dd]	4.a]	2bb-_	2.r	.	2.r	.
.	.	.	.	8BJ	.	.	.	.	.	.	.	.	.	.	.	8B'J]	.	.	.	.	.	.	.	.
.	.	.	.	4B	.	.	.	.	.	.	.	.	.	.	.	4B~	.	[2ee-X	.	.	.	.	.	.
.	.	8F#']	.	.	.	8ddn~)	[	.	.	.	.	.	.	8F#']	.	.	.	.	(8a	.	.	.	.	.
.	.	[4F#~	.	[4c#X	.	[4ee#X	mf	8bb-L]	<	.	.	.	.	[4F#~	.	[4c#X	.	.	[4b-X)	8bb-L]	.	.	.	.
.	.	.	.	.	.	.	.	8bb-X~J)	[[	.	.	.	.	.	.	.	.	.	.	(8bb-XJ	.	.	.	.
=42	=42	=42	=42	=42	=42	=42	=42	=42	=42	=42	=42	=42	=42	=42	=42	=42	=42	=42	=42	=42	=42	=42	=42	=42
4r	.	8F#L_	.	4.c#]	.	2ee#]	.	2ccc	[	4r	.	2.r	.	8F#L_	.	4.c#]	.	8ee-L]	4.b-]	2ccc)	2.r	.	2.r	.
.	.	8F#'J]	.	.	.	.	.	.	.	.	.	.	.	8F#'J]	.	.	.	[8ddJ	.	.	.	.	.	.
4r	.	2G#X~	.	.	.	.	.	.	.	4r	.	.	.	2G#X~	.	.	.	2dd_	.	.	.	.	.	.
.	.	.	.	[4.B	.	.	.	.	.	.	.	.	.	.	.	([4.B~	.	.	[4.a	.	.	.	.	.
([4GG	mf	.	.	.	.	[4dd#X	.	[4bb-X	.	([4GG	mf	.	.	.	.	.	.	.	.	[4bb-X	.	.	.	.
=43	=43	=43	=43	=43	=43	=43	=43	=43	=43	=43	=43	=43	=43	=43	=43	=43	=43	=43	=43	=43	=43	=43	=43	=43
!!pagebreak:original
8GGL]	.	[2F#X	.	4.B]	.	2dd#]	.	4.bb-]	.	8GGL]	.	4r	.	[2F#X	.	4.B]	.	8dd]	4a]	2bb-_	4r	.	4r	.
8GG'J)	.	.	.	.	.	.	.	.	.	8GG'J)	.	.	.	.	.	.	.	[4.ee-X	.	.	.	.	.	.
*	*	*	*	*	*	*	*	*	*	*	*	*	*	*	*	*	*	*v	*v	*	*	*	*	*
*	*	*	*	*	*	*	*	*	*	*	*	*	*	*	*	*	*	*	*	*	*	*8va	*
*	*	*	*	*	*	*	*	*	*	*	*	*	*	*	*	*	*	*^	*	*	*	*	*
([2GG~	.	.	.	.	.	.	.	.	.	([2GG~	.	4r	.	.	.	.	.	.	[2a	.	2fff	mf	2fff	mf
.	.	.	.	8B	.	.	.	(4ccc	.	.	.	.	.	.	.	8B')	.	.	.	.	.	.	.	.
.	.	8F#L]	.	[4B	.	[4ee#X	.	.	.	.	.	[4a	mf	8F#L]	.	[4B~	.	8ee-L]	.	8bb-L]	.	.	.	.
.	.	(8F#J	.	.	.	.	.	8bb-X~)	.	.	.	.	.	(8F#J	.	.	.	[8ddJ	.	(8bb-XJ	.	.	.	.
=44	=44	=44	=44	=44	=44	=44	=44	=44	=44	=44	=44	=44	=44	=44	=44	=44	=44	=44	=44	=44	=44	=44	=44	=44
!	!	!	!	!	!	!	!	!	!	!	!	!	!	!	!	!	!	!LO:TX:t=cresc.	!	!	!	!	!	!
!LO:TX:t=cresc.	!	!LO:TX:t=cresc.	!	!LO:TX:t=cresc.	!	!LO:TX:t=cresc.	!	!LO:TX:t=cresc.	!	!LO:TX:t=cresc.	!	!LO:TX:t=cresc.	!	!LO:TX:t=cresc.	!	!LO:TX:t=cresc.	!	!LO:TX:t=cresc.	!	!LO:TX:t=cresc.	!LO:TX:t=cresc.	!	!LO:TX:t=cresc.	!
8GGL]	.	[2.G#X)	.	8BL]	.	4ee#]	.	[2.ccc	.	8GGL]	.	4.a]	.	[2.G#X)	.	8BL]	.	2dd]	4.a]	[2.ccc)	4.eee-X	.	4.eee-X	.
8GG'J)	.	.	.	8BJ	.	.	.	.	.	8GG'J)	.	.	.	.	.	(8BJ	.	.	.	.	.	.	.	.
[4.GG~	.	.	.	4c#X	.	4.dd#X	.	.	.	[4.GG~	.	.	.	.	.	4c#X)	.	.	.	.	.	.	.	.
.	.	.	.	.	.	.	.	.	.	.	.	4b	.	.	.	.	.	.	4b-X	.	[4.fff	.	[4.fff	.
.	.	.	.	[4B	.	.	.	.	.	.	.	.	.	.	.	[4B	.	[4ee-X	.	.	.	.	.	.
8GG']	.	.	.	.	.	[8ee#X	.	.	.	8GG']	.	[8a	.	.	.	.	.	.	[8a	.	.	.	.	.
=45	=45	=45	=45	=45	=45	=45	=45	=45	=45	=45	=45	=45	=45	=45	=45	=45	=45	=45	=45	=45	=45	=45	=45	=45
[4.GG~	.	8G#L]	.	4.B]	.	4.ee#]	.	8ccc]	.	[4.GG~	.	4.a]	.	8G#L]	.	4.B]	.	4ee-]	4.a]	8ccc]	4.fff]	.	4.fff]	.
.	.	(8F#XJ	.	.	.	.	.	[4bb-X	.	.	.	.	.	(8F#XJ	.	.	.	.	.	4bb-X	.	.	.	.
.	.	2G#X)	.	.	.	.	.	.	.	.	.	.	.	2G#X)	.	.	.	[2dd	.	.	.	.	.	.
!	!	!	!	!	!	!	!	!	!	!	!	!	!	!	!	!	!	!	!	!	!	!	!LO:TX:a:B:t=Rit.	!
8GG']	.	.	.	4c#X	.	[4.dd#X	.	8bb-]	.	8GG']	.	4b	.	.	.	4c#X	.	.	4b-X	(8bb-	[4.eee-X	.	[4.eee-X	.
[4GG~	.	.	.	.	.	.	.	[4ccc	.	[4GG~	.	.	.	.	.	.	.	.	.	[4ccc	.	.	.	.
.	.	.	.	[8B	.	.	.	.	.	.	.	[8a	.	.	.	[8B	.	.	[8a	.	.	.	.	.
*	*	*	*	*	*	*	*	*	*	*	*	*	*	*	*	*	*	*v	*v	*	*	*	*	*
=46	=46	=46	=46	=46	=46	=46	=46	=46	=46	=46	=46	=46	=46	=46	=46	=46	=46	=46	=46	=46	=46	=46	=46
*	*	*	*	*	*	*	*	*	*	*	*	*	*	*	*	*	*	*	*	*	*	*X8va	*
*	*	*	*	*	*	*	*	*	*	*	*	*	*	*	*	*	*	*^	*	*	*	*	*
4GG]	.	4.F#X	.	4B]	.	8dd#]	.	4ccc]	.	4GG]	.	4a]	.	4.F#X	.	4B]	.	4dd]	4a]	4ccc])	4eee-]	.	4ee-]	.
.	.	.	.	.	.	4ee#X	.	.	.	.	.	.	.	.	.	.	.	.	.	.	.	.	.	.
4GG~	.	.	.	4c#X	.	.	.	2bb-X	.	4GG~	.	4b	.	.	.	4c#X	.	4ee-X	4b-X	2bb-X	4fff	.	4ff	.
.	.	4.G#X	.	.	.	[4dd#X	.	.	.	.	.	.	.	4.G#X	.	.	.	.	.	.	.	.	.	.
4GG~	.	.	.	4B	.	.	.	.	.	4GG~	.	4a	.	.	.	4B	.	4dd	4a	.	4eee-X	.	4ee-X	.
.	.	.	.	.	.	8dd#]	.	.	.	.	.	.	.	.	.	.	.	.	.	.	.	.	.	.
*	*	*	*	*	*	*	*	*	*	*	*	*	*	*	*	*	*	*v	*v	*	*	*	*	*
==	==	==	==	==	==	==	==	==	==	==	==	==	==	==	==	==	==	==	==	==	==	==	==
*-	*-	*-	*-	*-	*-	*-	*-	*-	*-	*-	*-	*-	*-	*-	*-	*-	*-	*-	*-	*-	*-	*-	*-
!!!CDT: 1900/11/14-1990/12/02
!!!CBL: Brooklyn, United States
!!!CDL: North Tarrytown, United States
!!!CNT: American
!!!AGN: Stage; Ballet
!!!MCN: Copland, Aaron
!!!MDT: 1963/12/03
!!!MGN: Bavarian State Opera Ballet
!!!MLC: Munich, Germany
!!!MPD: 1963
!!!MPN:
!!!ODT: 1959 (rev. 1962)
!!!PDT: 1965
!!!excerpt-start-measure: 31
!!!excerpt-end-measure: 46
!!!excerpt-start-time: 1:12
!!!excerpt-end-time: 1:50
!!!EEV: 2020/01/17
!!!system-decoration: [(s1,s2,s3,s4,s5)][(s6,s7,s8)][(s9,s10,s11,s12,s13)]
!!!ONB: Converted from MusicXML on 2020/01/17
